iconography/32x32/Swift.svg

<svg width="32" height="32" viewBox="0 0 32 32" fill="none" xmlns="http://www.w3.org/2000/svg">
<path d="M18.0113 22.3214L18.5499 23.1639C18.8265 22.9871 18.9988 22.6856 19.0106 22.3575C19.0225 22.0293 18.8725 21.7163 18.6093 21.5199L18.0113 22.3214ZM3.96461 7.02739L4.71444 6.36577C4.39095 5.99914 3.84978 5.9202 3.43503 6.17912C3.02028 6.43805 2.85358 6.95892 3.04092 7.41055L3.96461 7.02739ZM16.1181 16.2876L15.5903 17.137C16.0545 17.4254 16.6642 17.2877 16.9595 16.8279C17.2548 16.368 17.1262 15.7563 16.6708 15.4542L16.1181 16.2876ZM7.43264 5.51712L8.13171 4.80207C7.76041 4.43907 7.17305 4.42065 6.77974 4.75967C6.38643 5.09869 6.31804 5.68234 6.62232 6.10311L7.43264 5.51712ZM22.4649 17.0186L22.0414 17.9245C22.297 18.0439 22.5911 18.0499 22.8513 17.9409C23.1115 17.8319 23.3136 17.618 23.4077 17.3521L22.4649 17.0186ZM19.2911 3L19.6938 2.08468C19.2831 1.90399 18.8024 2.01893 18.5179 2.36582C18.2333 2.71272 18.2147 3.20665 18.4722 3.57403L19.2911 3ZM28.5205 21.7945L27.5928 21.4213C27.4237 21.8414 27.5582 22.3227 27.9205 22.5945L28.5205 21.7945ZM30.3837 29.527L29.5603 30.0944L30.3837 29.527ZM27.234 27.1643L27.3984 26.1779L27.3984 26.1779L27.234 27.1643ZM22.6221 28.3345L22.2288 27.415H22.2288L22.6221 28.3345ZM18.8436 29.6255L19.011 30.6114L18.8436 29.6255ZM1 20.452L1.54012 19.6104C1.15322 19.3621 0.646862 19.4096 0.312857 19.7255C-0.0211474 20.0414 -0.0967367 20.5443 0.129651 20.9445L1 20.452ZM18.6093 21.5199C16.5389 19.9751 13.6496 17.5888 10.997 14.9025C8.32538 12.1969 5.97741 9.2698 4.88829 6.64423L3.04092 7.41055C4.28257 10.4038 6.85582 13.5552 9.57384 16.3077C12.3107 19.0794 15.2794 21.5307 17.4133 23.1228L18.6093 21.5199ZM3.21477 7.68901C4.62883 9.29161 7.00338 11.2004 9.34142 12.9097C11.6979 14.6326 14.0893 16.2044 15.5903 17.137L16.6458 15.4382C15.1816 14.5284 12.8325 12.9846 10.5218 11.2952C8.19261 9.59233 5.97305 7.79218 4.71444 6.36577L3.21477 7.68901ZM16.6708 15.4542C16.6713 15.4546 16.6669 15.4516 16.657 15.4442C16.6472 15.4368 16.6339 15.4264 16.6166 15.4123C16.5817 15.3837 16.5358 15.344 16.478 15.2908C16.3619 15.1842 16.2093 15.0344 16.0166 14.8328C15.6314 14.4299 15.1043 13.8391 14.4149 13.0121C13.0369 11.3589 11.0302 8.78542 8.24295 4.93113L6.62232 6.10311C9.42664 9.98095 11.4622 12.5934 12.8786 14.2927C13.5866 15.1419 14.1448 15.7691 14.5708 16.2147C14.9763 16.639 15.3124 16.9532 15.5653 17.1209L16.6708 15.4542ZM6.73356 6.23217C13.8559 13.1953 19.3849 16.6827 22.0414 17.9245L22.8884 16.1127C20.4903 14.9916 15.1426 11.6563 8.13171 4.80207L6.73356 6.23217ZM23.4077 17.3521C24.4071 14.5268 24.0766 11.5168 23.2791 8.90128C22.4794 6.27875 21.1815 3.95457 20.1099 2.42597L18.4722 3.57403C19.449 4.96738 20.6399 7.10304 21.366 9.48458C22.0943 11.8731 22.3265 14.4114 21.5222 16.6851L23.4077 17.3521ZM18.8883 3.91532C22.8008 5.63681 25.4363 8.89671 26.8625 12.3395C28.3037 15.8185 28.4422 19.3097 27.5928 21.4213L29.4482 22.1677C30.5565 19.4128 30.2755 15.3527 28.7102 11.574C27.1298 7.75909 24.1717 4.05497 19.6938 2.08468L18.8883 3.91532ZM27.9205 22.5945C29.1531 23.5189 29.7328 25.2137 29.9254 26.874C30.0188 27.6791 30.0131 28.4134 29.9702 28.9332C29.9485 29.1964 29.919 29.382 29.8958 29.4834C29.8826 29.5411 29.88 29.5332 29.8988 29.4906C29.9061 29.4741 29.9412 29.3945 30.0181 29.3026C30.0729 29.2371 30.3186 28.9611 30.7579 28.9611V30.9611C31.2147 30.9611 31.4786 30.6738 31.5519 30.5861C31.6473 30.4721 31.7014 30.3595 31.7278 30.2998C31.7848 30.1709 31.8211 30.0357 31.8453 29.9298C31.8971 29.7039 31.9371 29.4166 31.9634 29.0978C32.0166 28.4533 32.0215 27.5865 31.9121 26.6436C31.6991 24.8079 31.0203 22.4193 29.1205 20.9945L27.9205 22.5945ZM30.7579 28.9611C30.941 28.9611 31.0818 29.0134 31.1646 29.0537C31.2474 29.0939 31.3034 29.1371 31.3305 29.1595C31.3812 29.2015 31.4022 29.231 31.3861 29.2112C31.3752 29.1978 31.3555 29.1718 31.3224 29.1253C31.2899 29.0796 31.2532 29.0264 31.2071 28.9595L29.5603 30.0944C29.6407 30.2111 29.7415 30.3587 29.8341 30.4726C29.8797 30.5288 29.9558 30.6179 30.0556 30.7005C30.1261 30.7588 30.378 30.9611 30.7579 30.9611V28.9611ZM31.2071 28.9595C30.7329 28.2715 29.5801 26.5416 27.3984 26.1779L27.0696 28.1507C28.3257 28.3601 29.0535 29.3591 29.5603 30.0944L31.2071 28.9595ZM27.3984 26.1779C26.5069 26.0294 25.6021 26.1882 24.7626 26.4387C23.9221 26.6894 23.0517 27.063 22.2288 27.415L23.0154 29.2539C23.8638 28.891 24.6243 28.567 25.3343 28.3552C26.0454 28.1431 26.6108 28.0743 27.0696 28.1507L27.3984 26.1779ZM22.2288 27.415C20.9672 27.9547 19.7985 28.449 18.6762 28.6396L19.011 30.6114C20.4103 30.3738 21.8036 29.7722 23.0154 29.2539L22.2288 27.415ZM18.6762 28.6396C17.4004 28.8563 14.3213 28.7238 10.9616 27.4783C7.63209 26.2439 4.13055 23.9544 1.87035 19.9596L0.129651 20.9445C2.67994 25.4519 6.61789 28.0009 10.2664 29.3535C13.8847 30.695 17.3222 30.8982 19.011 30.6114L18.6762 28.6396ZM0.459877 21.2936C2.17187 22.3923 4.94954 23.9412 8.15172 24.6848C11.3675 25.4316 15.0838 25.3795 18.5499 23.1639L17.4727 21.4788C14.5942 23.3188 11.4735 23.403 8.60413 22.7366C5.72114 22.0672 3.16545 20.6536 1.54012 19.6104L0.459877 21.2936Z" fill="#2E3141"/>
</svg>

<svg width="32" height="32" fill="none" xmlns="http://www.w3.org/2000/svg"><path d="m18.011 22.321.539.843a1 1 0 0 0 .06-1.644l-.599.801ZM3.965 7.027l.75-.661A1 1 0 0 0 3.04 7.41l.924-.384Zm12.153 9.26-.528.85a1 1 0 0 0 1.08-1.683l-.552.834ZM7.433 5.518l.699-.715a1 1 0 0 0-1.51 1.301l.81-.586ZM22.465 17.02l-.424.905a1 1 0 0 0 1.367-.572l-.943-.333ZM19.29 3l.403-.915a1 1 0 0 0-1.222 1.489l.82-.574Zm9.23 18.794-.928-.373a1 1 0 0 0 .328 1.174l.6-.8Zm1.863 7.733-.824.567.824-.567Zm-3.15-2.363.164-.986-.164.986Zm-4.612 1.17-.393-.919.393.92Zm-3.778 1.291.167.986-.167-.986ZM1 20.453l.54-.842a1 1 0 0 0-1.41 1.335l.87-.493Zm17.61 1.068c-2.071-1.545-4.96-3.931-7.613-6.617-2.672-2.706-5.02-5.633-6.109-8.259l-1.847.767c1.242 2.993 3.815 6.144 6.533 8.897 2.737 2.771 5.705 5.223 7.84 6.815l1.195-1.603ZM3.214 7.689c1.414 1.603 3.788 3.511 6.126 5.22a106.88 106.88 0 0 0 6.25 4.228l1.055-1.699a104.939 104.939 0 0 1-6.124-4.143c-2.33-1.703-4.549-3.503-5.808-4.93l-1.5 1.324Zm13.456 7.765-.014-.01a3.267 3.267 0 0 1-.179-.153 10.265 10.265 0 0 1-.461-.458 36.93 36.93 0 0 1-1.602-1.82c-1.378-1.654-3.385-4.228-6.172-8.082l-1.62 1.172c2.804 3.878 4.84 6.49 6.256 8.19a39.203 39.203 0 0 0 1.692 1.922c.405.424.741.738.994.906l1.106-1.667ZM6.734 6.232c7.122 6.963 12.65 10.45 15.307 11.692l.847-1.811c-2.398-1.121-7.745-4.457-14.756-11.31l-1.398 1.43Zm16.674 11.12c1-2.825.669-5.835-.129-8.45-.8-2.623-2.098-4.947-3.17-6.476l-1.637 1.148c.977 1.393 2.168 3.529 2.894 5.91.728 2.39.96 4.927.156 7.201l1.886.667Zm-4.52-13.437c3.913 1.722 6.548 4.982 7.974 8.424 1.442 3.48 1.58 6.97.73 9.082l1.856.747c1.108-2.755.828-6.815-.738-10.594-1.58-3.815-4.538-7.519-9.016-9.49l-.806 1.831Zm9.032 18.68c1.233.924 1.813 2.619 2.005 4.279.094.805.088 1.54.045 2.06a4.232 4.232 0 0 1-.074.55c-.013.057-.016.05.003.007a.756.756 0 0 1 .12-.188.964.964 0 0 1 .739-.342v2c.457 0 .72-.287.794-.375.095-.114.15-.226.176-.286.057-.13.093-.264.117-.37.052-.226.092-.513.118-.832a12.77 12.77 0 0 0-.05-2.454c-.214-1.836-.893-4.225-2.793-5.65l-1.2 1.6Zm2.838 6.366a.93.93 0 0 1 .573.199c.05.041.071.071.055.051l-.064-.086-.115-.166-1.647 1.135c.08.117.181.265.274.379.046.056.122.145.222.228.07.058.322.26.702.26v-2Zm.45-.002c-.475-.688-1.628-2.417-3.81-2.781l-.328 1.973c1.256.21 1.983 1.208 2.49 1.943l1.647-1.135Zm-3.81-2.781c-.891-.149-1.796.01-2.635.26-.84.251-1.711.625-2.534.977l.786 1.839c.849-.363 1.61-.687 2.32-.899.71-.212 1.276-.28 1.735-.204l.328-1.973Zm-5.17 1.237c-1.26.54-2.43 1.034-3.552 1.225l.335 1.971c1.4-.237 2.793-.839 4.004-1.357l-.786-1.839Zm-3.552 1.225c-1.276.216-4.355.084-7.714-1.162-3.33-1.234-6.831-3.524-9.092-7.518l-1.74.985C2.68 25.452 6.618 28 10.266 29.354c3.619 1.341 7.056 1.544 8.745 1.257l-.335-1.971ZM.46 21.294c1.712 1.098 4.49 2.647 7.692 3.39 3.216.748 6.932.695 10.398-1.52l-1.077-1.685c-2.879 1.84-6 1.924-8.869 1.258-2.883-.67-5.439-2.083-7.064-3.127L.46 21.294Z" fill="#2E3141"/></svg>
